actions/22x22-dark/kdenlive-add-color-clip.svg

<svg xmlns="http://www.w3.org/2000/svg" viewBox="0 0 22 22">
 <defs id="defs3051">
   <style type="text/css" id="current-color-scheme">
     .ColorScheme-Text {
       color:#f2f2f2;
     }
     </style>
 </defs>
   <path
      style="fill:currentColor;fill-opacity:1;stroke:none"
      d="m3.88867 3c-.49244 0-.88867.35758-.88867.80078v14.39844c0 .4432.39623.80078.88867.80078h14.22266c.49244 0 .88867-.35758.88867-.80078v-14.39844c0-.4432-.39623-.80078-.88867-.80078zm7.11133 3c .0797 0 .15778.0401.20313.11914l2.74609 4.78711c.9343 1.62942.37159 3.70829-1.25781 4.64258-1.62941.9343-3.70829.37158-4.64258-1.25781-.62151-1.0839-.57695-2.37247 0-3.38477l2.74609-4.78711c.0453-.0791.12538-.11914.20508-.11914z"
      class="ColorScheme-Text" />
</svg>

<svg xmlns="http://www.w3.org/2000/svg" viewBox="0 0 22 22">
  <defs id="defs3051">
    <style type="text/css" id="current-color-scheme">
      .ColorScheme-Text {
        color:#f2f2f2
      }
      </style>
  </defs>
 <path 
     style="fill:currentColor;fill-opacity:1;stroke:none"      
	 class="ColorScheme-Text"
        d="M 3.88867,3 C 3.39623,3 3,3.35758 3,3.80078 L 3,18.19922 C 3,18.64242 3.39623,19 3.88867,19 l 14.22266,0 C 18.60377,19 19,18.64242 19,18.19922 L 19,3.80078 C 19,3.35758 18.60377,3 18.11133,3 L 3.88867,3 Z M 11,6 c 0.0797,0 0.15778,0.0401 0.20313,0.11914 l 2.74609,4.78711 c 0.9343,1.62942 0.37159,3.70829 -1.25781,4.64258 -1.62941,0.9343 -3.70829,0.37158 -4.64258,-1.25781 -0.62151,-1.0839 -0.57695,-2.37247 0,-3.38477 L 10.79492,6.11914 C 10.84022,6.04004 10.9203,6 11,6 Z"
     />
</svg>
